static/logos/whereby-glyph-color.svg

<svg width="100" height="26" viewBox="0 0 100 26" fill="none" xmlns="http://www.w3.org/2000/svg">
<g clip-path="url(#clip0_1_407)">
<path d="M19.5926 1.06909C17.8481 1.06909 15.9793 2.41183 14.4782 5.57515L12.549 0.946289H12.426C12.1062 1.68307 11.1202 2.07681 10.1851 2.07681H0.0390625V2.27302C0.851118 2.61738 1.56552 3.79595 2.23041 5.39365L8.53554 20.627H8.73221L12.83 10.7113L16.9331 20.627H17.1297L20.6268 11.9286C21.9806 8.5129 22.8676 6.62158 22.8676 4.92647C22.8676 2.66543 21.6127 1.06909 19.5926 1.06909ZM10.1342 15.3588L6.04723 5.41764C5.38231 3.79595 5.9977 2.64141 7.67268 2.64141C9.14963 2.64141 9.88944 3.62378 10.6279 5.39365L12.434 9.75558L10.1342 15.3588ZM19.9378 11.6336L18.5117 15.2506L14.723 6.16112C15.6515 4.81971 16.8527 4.31116 18.2374 4.31116C19.8869 4.31116 20.873 5.44168 20.873 7.48116C20.873 8.61168 20.5773 10.0132 19.9378 11.6336Z" fill="black"/>
<path d="M72.9336 10.9219C72.9336 8.90774 70.8651 7.43286 68.2298 7.43286C64.2402 7.43286 61.5312 10.8725 61.5312 14.4843C61.5312 18.4151 64.5359 20.7749 67.5153 20.7749C69.9045 20.7749 72.219 19.3253 72.9336 16.7947L72.7608 16.6479C71.9486 17.8518 70.5444 18.5152 69.1406 18.5152C67.2932 18.5152 65.7909 17.4581 65.0777 15.5667C68.8946 14.9515 72.9336 13.9184 72.9336 10.9219ZM64.9054 14.9754C64.758 14.3856 64.6834 13.7476 64.6834 13.0842C64.6834 9.89014 66.0369 8.09624 67.712 8.09624C69.0176 8.09624 69.4111 9.20141 69.4111 10.3813C69.4111 12.8372 67.1956 14.4843 64.9054 14.9754Z" fill="black"/>
<path d="M97.2378 7.06335C95.5401 7.06335 93.9134 8.66105 92.911 10.8166L91.2284 7.28359H91.0317C90.7119 8.48753 89.2096 9.1749 87.5584 9.15091V9.34711C88.5927 9.5927 89.0354 10.575 89.6763 11.8778L94.035 20.8458L93.7392 21.3864C92.803 23.2297 92.1636 23.893 91.4983 23.893C90.2918 23.893 90.1927 22.1485 88.7401 22.1485C87.8781 22.1485 87.1641 22.7385 87.1641 23.7703C87.1641 24.9248 88.4443 25.6615 89.7739 25.6615C91.719 25.6615 92.926 24.1386 94.2317 21.6814L97.6054 15.3908C98.9594 12.8601 99.6993 11.755 99.6993 9.86232C99.7007 8.34204 98.8138 7.06335 97.2378 7.06335ZM97.0157 15.0744L95.9321 17.1633L93.1509 11.3239C93.6833 10.3802 94.6195 9.61941 96.0054 9.61941C97.3115 9.61941 98.0002 10.4296 98.0002 11.7577C98.0016 12.6666 97.6805 13.7958 97.0157 15.0744Z" fill="black"/>
<path d="M36.6052 17.8507V10.2587C36.6052 8.56355 35.5456 7.43303 33.9697 7.43303C32.074 7.43303 29.6847 9.1535 28.4043 10.4055V0.160034H28.2318C27.4679 1.36397 25.4987 2.10074 23.6016 2.05135V2.24756C24.6853 2.54254 25.0049 3.30468 25.0049 4.77824V17.8493C25.0049 18.9545 24.5126 19.8394 23.6257 20.2078V20.404H29.8318V20.2078C28.9208 19.6913 28.4031 18.9545 28.4031 17.8987V11.0435C29.8559 9.98636 30.9649 9.47115 31.777 9.47115C32.6881 9.47115 33.2059 10.1345 33.2059 11.4853V17.8987C33.2059 18.9558 32.7376 19.6672 31.777 20.2078V20.404H37.9832V20.2078C37.0975 19.8407 36.6052 18.9558 36.6052 17.8507Z" fill="black"/>
<path d="M82.7074 7.43303C80.9346 7.43303 79.2341 8.73575 78.2989 9.74214V0.160034H78.152C77.2651 1.36397 75.221 2.10075 73.3984 2.05135V2.24756C74.4088 2.54254 74.8754 3.32871 74.8754 4.77824V20.6509H75.0975L76.7233 18.833C77.4374 19.9636 78.7914 20.6509 80.4168 20.6509C84.505 20.6509 87.3121 17.162 87.3121 13.354C87.3121 9.86491 85.1205 7.43303 82.7074 7.43303ZM80.3177 19.9876C79.1111 19.9876 78.2989 19.0052 78.2989 17.6532V10.4295C79.1111 9.71679 80.0238 9.05341 81.0322 9.07876C82.7567 9.10279 83.7412 11.0448 83.7656 14.0173C83.7909 17.3835 82.4116 19.9876 80.3177 19.9876Z" fill="black"/>
<path d="M59.6067 7.43294C58.2527 7.43294 56.7748 8.88252 56.0855 10.2586V7.28613H55.8888C55.0513 8.49008 53.0809 9.20285 51.2344 9.17749V9.37369C52.2447 9.66867 52.7372 10.4789 52.7372 11.9044V17.7518C52.7372 18.8823 52.2447 19.7659 51.2602 20.209V20.4053H57.6132V20.209C56.6034 19.7673 56.1607 18.8823 56.1607 17.7518V10.8726C56.5297 10.4054 56.9485 9.91425 57.4409 9.91425C58.3517 9.91425 58.7212 11.0194 59.8541 11.0194C60.6424 11.0194 61.4555 10.3801 61.4555 9.29895C61.4527 8.21914 60.5912 7.43294 59.6067 7.43294Z" fill="black"/>
<path d="M50.1055 10.9219C50.1055 8.90774 48.037 7.43286 45.4016 7.43286C41.4122 7.43286 38.7031 10.8725 38.7031 14.4843C38.7031 18.4151 41.7079 20.7749 44.6872 20.7749C47.0764 20.7749 49.391 19.3253 50.1055 16.7947L49.9327 16.6479C49.121 17.8518 47.7158 18.5152 46.3127 18.5152C44.4651 18.5152 42.9627 17.4581 42.2497 15.5667C46.0665 14.9515 50.1055 13.9184 50.1055 10.9219ZM42.0772 14.9754C41.93 14.3856 41.8551 13.7476 41.8551 13.0842C41.8551 9.89014 43.2089 8.09624 44.8839 8.09624C46.1897 8.09624 46.6083 9.20141 46.6083 10.3813C46.6083 12.8372 44.3675 14.4843 42.0772 14.9754Z" fill="black"/>
</g>
<defs>
<clipPath id="clip0_1_407">
<rect width="100" height="25.8216" fill="white"/>
</clipPath>
</defs>
</svg>

<svg xmlns="http://www.w3.org/2000/svg" width="246.154" height="64" fill="none" viewBox="0 0 100 26"><g fill="#000" clip-path="url(#a)"><path d="M19.593 1.07c-1.745 0-3.614 1.342-5.115 4.505L12.55.946h-.123c-.32.737-1.306 1.13-2.24 1.13H.038v.197c.812.344 1.527 1.523 2.191 3.12l6.306 15.234h.196l4.098-9.916 4.103 9.916h.197l3.497-8.698c1.354-3.416 2.24-5.307 2.24-7.003 0-2.26-1.254-3.857-3.274-3.857Zm-9.459 14.289L6.047 5.418c-.665-1.622-.05-2.777 1.626-2.777 1.477 0 2.216.983 2.955 2.753l1.806 4.362-2.3 5.603Zm9.804-3.725-1.426 3.617-3.789-9.09c.928-1.341 2.13-1.85 3.514-1.85 1.65 0 2.636 1.13 2.636 3.17 0 1.13-.296 2.532-.935 4.153ZM72.934 10.922c0-2.014-2.069-3.49-4.704-3.49-3.99 0-6.699 3.44-6.699 7.052 0 3.931 3.005 6.29 5.984 6.29 2.39 0 4.704-1.449 5.419-3.98l-.173-.146c-.812 1.204-2.217 1.867-3.62 1.867-1.848 0-3.35-1.057-4.063-2.948 3.817-.616 7.856-1.649 7.856-4.645Zm-8.029 4.053a7.824 7.824 0 0 1-.222-1.89c0-3.195 1.354-4.989 3.029-4.989 1.306 0 1.7 1.105 1.7 2.285 0 2.456-2.216 4.103-4.507 4.594ZM97.238 7.063c-1.698 0-3.325 1.598-4.327 3.754l-1.683-3.533h-.196c-.32 1.204-1.822 1.89-3.474 1.867v.196c1.035.246 1.477 1.228 2.118 2.53l4.359 8.969-.296.54c-.936 1.844-1.575 2.507-2.24 2.507-1.207 0-1.306-1.745-2.759-1.745-.862 0-1.576.59-1.576 1.622 0 1.155 1.28 1.892 2.61 1.892 1.945 0 3.152-1.523 4.458-3.98l3.373-6.291c1.354-2.53 2.094-3.636 2.094-5.529.002-1.52-.885-2.799-2.461-2.799Zm-.222 8.011-1.084 2.09-2.781-5.84c.532-.944 1.469-1.705 2.854-1.705 1.306 0 1.995.81 1.995 2.139.002.909-.32 2.038-.984 3.316ZM36.605 17.85V10.26c0-1.695-1.06-2.826-2.635-2.826-1.896 0-4.285 1.72-5.566 2.973V.16h-.172c-.764 1.204-2.733 1.94-4.63 1.891v.197c1.083.295 1.403 1.057 1.403 2.53V17.85c0 1.105-.492 1.99-1.38 2.359v.196h6.207v-.196c-.911-.517-1.429-1.253-1.429-2.31v-6.854c1.453-1.058 2.562-1.573 3.374-1.573.911 0 1.429.663 1.429 2.014V17.9c0 1.057-.468 1.768-1.429 2.309v.196h6.206v-.196c-.886-.367-1.378-1.252-1.378-2.357ZM82.707 7.433c-1.772 0-3.473 1.303-4.408 2.31V.16h-.147c-.887 1.204-2.931 1.94-4.754 1.891v.197c1.01.295 1.477 1.08 1.477 2.53v15.873h.222l1.626-1.818c.714 1.13 2.068 1.818 3.694 1.818 4.088 0 6.895-3.489 6.895-7.297 0-3.49-2.191-5.921-4.605-5.921Zm-2.39 12.555c-1.206 0-2.018-.983-2.018-2.335V10.43c.812-.713 1.725-1.377 2.733-1.351 1.725.024 2.71 1.966 2.734 4.938.025 3.367-1.354 5.97-3.448 5.97ZM59.607 7.433c-1.354 0-2.832 1.45-3.521 2.826V7.286h-.197c-.838 1.204-2.808 1.917-4.655 1.891v.197c1.01.295 1.503 1.105 1.503 2.53v5.848c0 1.13-.492 2.014-1.477 2.457v.196h6.353v-.196c-1.01-.442-1.452-1.327-1.452-2.457v-6.88c.369-.467.788-.958 1.28-.958.91 0 1.28 1.105 2.413 1.105.788 0 1.602-.639 1.602-1.72a1.85 1.85 0 0 0-1.85-1.866ZM50.105 10.922c0-2.014-2.068-3.49-4.703-3.49-3.99 0-6.699 3.44-6.699 7.052 0 3.931 3.005 6.29 5.984 6.29 2.39 0 4.704-1.449 5.419-3.98l-.173-.146c-.812 1.204-2.217 1.867-3.62 1.867-1.848 0-3.35-1.057-4.063-2.948 3.816-.616 7.855-1.649 7.855-4.645Zm-8.028 4.053a7.834 7.834 0 0 1-.222-1.89c0-3.195 1.354-4.989 3.029-4.989 1.306 0 1.724 1.105 1.724 2.285 0 2.456-2.24 4.103-4.53 4.594Z"/></g><defs><clipPath id="a"><path fill="#fff" d="M0 0h100v25.822H0z"/></clipPath></defs></svg>
